images/flag-icon-1.svg

<svg width="22" height="16" viewBox="0 0 22 16" fill="none" xmlns="http://www.w3.org/2000/svg">
<g clip-path="url(#clip0_206_19996)">
<path d="M0 0H21.3333V16H0V0Z" fill="#012169"/>
<path d="M2.5 0L10.6333 6.03333L18.7333 0H21.3333V2.06667L13.3333 8.03333L21.3333 13.9667V16H18.6667L10.6667 10.0333L2.7 16H0V14L7.96667 8.06667L0 2.13333V0H2.5Z" fill="white"/>
<path d="M14.1333 9.36667L21.3333 14.6667V16L12.3 9.36667H14.1333ZM8 10.0333L8.2 11.2L1.8 16H0L8 10.0333ZM21.3333 0V0.1L13.0333 6.36667L13.1 4.9L19.6667 0H21.3333ZM0 0L7.96667 5.86667H5.96667L0 1.4V0Z" fill="#C8102E"/>
<path d="M8.03333 0V16H13.3667V0H8.03333ZM0 5.33333V10.6667H21.3333V5.33333H0Z" fill="white"/>
<path d="M0 6.43333V9.63333H21.3333V6.43333H0ZM9.1 0V16H12.3V0H9.1Z" fill="#C8102E"/>
</g>
<defs>
<clipPath id="clip0_206_19996">
<rect width="21.3333" height="16" rx="4" fill="white"/>
</clipPath>
</defs>
</svg>

<svg width="22" height="16" fill="none" xmlns="http://www.w3.org/2000/svg"><g clip-path="url(#clip0_206_19996)"><path d="M0 0h21.333v16H0V0z" fill="#012169"/><path d="M2.5 0l8.133 6.033L18.733 0h2.6v2.067l-8 5.966 8 5.934V16h-2.666l-8-5.967L2.7 16H0v-2l7.967-5.933L0 2.133V0h2.5z" fill="#fff"/><path d="M14.133 9.367l7.2 5.3V16L12.3 9.367h1.833zM8 10.033l.2 1.167L1.8 16H0l8-5.967zM21.333 0v.1l-8.3 6.267L13.1 4.9 19.667 0h1.666zM0 0l7.967 5.867h-2L0 1.4V0z" fill="#C8102E"/><path d="M8.033 0v16h5.334V0H8.033zM0 5.333v5.334h21.333V5.333H0z" fill="#fff"/><path d="M0 6.433v3.2h21.333v-3.2H0zM9.1 0v16h3.2V0H9.1z" fill="#C8102E"/></g><defs><clipPath id="clip0_206_19996"><rect width="21.333" height="16" rx="4" fill="#fff"/></clipPath></defs></svg>
